icons/communication/email-arrow-left-24.svg

<svg width="24" height="24" viewBox="0 0 24 24" fill="none" xmlns="http://www.w3.org/2000/svg">
<path d="M18.2224 21.6389L20.3573 19.2947H14.7474C14.5492 19.2947 14.3591 19.2115 14.2189 19.0634C14.0787 18.9154 14 18.7146 14 18.5052C14 18.2958 14.0787 18.095 14.2189 17.9469C14.3591 17.7989 14.5492 17.7157 14.7474 17.7157H20.3573L18.2224 15.3715C18.1496 15.301 18.0907 15.216 18.0492 15.1213C18.0077 15.0267 17.9843 14.9243 17.9805 14.8201C17.9767 14.7158 17.9924 14.6118 18.0269 14.5141C18.0613 14.4163 18.1138 14.3267 18.1812 14.2505C18.2486 14.1743 18.3297 14.1129 18.4197 14.07C18.5097 14.027 18.6068 14.0034 18.7056 14.0003C18.8043 13.9973 18.9026 14.015 18.9948 14.0523C19.087 14.0896 19.1713 14.1459 19.2428 14.2178L22.7629 17.9283C22.8377 18.0022 22.8974 18.0915 22.9382 18.1907C22.979 18.29 23 18.397 23 18.5052C23 18.6134 22.979 18.7204 22.9382 18.8196C22.8974 18.9188 22.8377 19.0082 22.7629 19.082L19.2428 22.7925C19.0976 22.9331 18.9057 23.0075 18.7089 22.9994C18.5121 22.9913 18.3262 22.9015 18.1917 22.7495C18.0572 22.5975 17.985 22.3955 17.9908 22.1875C17.9965 21.9795 18.0797 21.7824 18.2224 21.6389Z" fill="black"/>
<path fill-rule="evenodd" clip-rule="evenodd" d="M0 4.75C0 3.7835 0.783502 3 1.75 3H22.25C23.2165 3 24 3.7835 24 4.75V11.375C24 11.7892 23.6642 12.125 23.25 12.125C22.8358 12.125 22.5 11.7892 22.5 11.375V7.18716L12.7516 11.8231C12.276 12.0492 11.724 12.0492 11.2484 11.8231L1.5 7.18715V18.75C1.5 18.8881 1.61193 19 1.75 19H9.25C9.66421 19 10 19.3358 10 19.75C10 20.1642 9.66421 20.5 9.25 20.5H1.75C0.783502 20.5 0 19.7165 0 18.75V4.75ZM1.5 5.52618L11.8926 10.4685C11.9606 10.5008 12.0394 10.5008 12.1074 10.4685L22.5 5.52618V4.75C22.5 4.61193 22.3881 4.5 22.25 4.5H1.75C1.61193 4.5 1.5 4.61193 1.5 4.75V5.52618Z" fill="black"/>
</svg>

<svg xmlns="http://www.w3.org/2000/svg" width="24" height="24"><path d="M18.222 21.639l2.135-2.344h-5.61a.728.728 0 01-.528-.232.812.812 0 01-.219-.558c0-.21.079-.41.219-.558a.728.728 0 01.528-.231h5.61l-2.135-2.345a.825.825 0 01-.041-1.121.75.75 0 01.239-.18.714.714 0 01.823.148l3.52 3.71a.792.792 0 01.175.263.828.828 0 01-.175.891l-3.52 3.71a.724.724 0 01-.534.207.731.731 0 01-.517-.25.815.815 0 01-.201-.561.81.81 0 01.231-.55z"/><path fill-rule="evenodd" d="M0 4.75C0 3.784.784 3 1.75 3h20.5c.966 0 1.75.784 1.75 1.75v6.625a.75.75 0 01-1.5 0V7.187l-9.748 4.636a1.75 1.75 0 01-1.504 0L1.5 7.187V18.75c0 .138.112.25.25.25h7.5a.75.75 0 010 1.5h-7.5A1.75 1.75 0 010 18.75v-14zm1.5.776l10.393 4.943a.25.25 0 00.214 0L22.5 5.526V4.75a.25.25 0 00-.25-.25H1.75a.25.25 0 00-.25.25v.776z"/></svg>
